packages/icons/src/components/Logo/assets/dark/rabbitmq.svg

<svg width="20" height="20" viewBox="0 0 20 20" fill="none" xmlns="http://www.w3.org/2000/svg">
<path d="M18.6745 8H12.3895C12.238 7.99994 12.0927 7.93974 11.9856 7.83262C11.8784 7.7255 11.8182 7.58024 11.8181 7.42874V0.878532C11.8181 0.393471 11.4248 0 10.94 0H8.69637C8.21123 0 7.81813 0.393471 7.81813 0.878532V7.38908C7.81813 7.72685 7.54506 8.0014 7.20728 8.00288L5.1476 8.01271C4.80694 8.01455 4.53018 7.73815 4.53084 7.39779L4.54362 0.880009C4.54473 0.394209 4.15126 0 3.66546 0H1.42371C0.938498 0 0.545471 0.393471 0.545471 0.878532V19.22C0.545471 19.6509 0.894549 20 1.3251 20H18.6745C19.1054 20 19.4545 19.6509 19.4545 19.22V8.78C19.4545 8.34908 19.1054 8 18.6745 8ZM15.7272 14.8865C15.7272 15.4512 15.2694 15.9091 14.7047 15.9091H12.9316C12.3669 15.9091 11.9091 15.4512 11.9091 14.8865V13.1134C11.9091 12.5487 12.3669 12.0909 12.9316 12.0909H14.7047C15.2694 12.0909 15.7272 12.5487 15.7272 13.1134V14.8865Z" fill="#FF6600"/>
</svg>

<svg xmlns="http://www.w3.org/2000/svg" width="20" height="20" fill="none" viewBox="0 0 20 20">
    <path fill="#f60" d="M18.675 8h-6.286a.57.57 0 0 1-.57-.571V.879A.88.88 0 0 0 10.94 0H8.696a.88.88 0 0 0-.878.879v6.51a.614.614 0 0 1-.61.614l-2.06.01a.614.614 0 0 1-.617-.615L4.544.88A.88.88 0 0 0 3.665 0H1.424a.88.88 0 0 0-.879.879V19.22c0 .43.35.78.78.78h17.35c.43 0 .78-.35.78-.78V8.78a.78.78 0 0 0-.78-.78m-2.948 6.887c0 .564-.458 1.022-1.022 1.022h-1.773a1.023 1.023 0 0 1-1.023-1.023v-1.773c0-.564.458-1.022 1.023-1.022h1.773c.564 0 1.022.458 1.022 1.022z"/>
</svg>
